!!!SOCIAL_FUNCTION:	songs of the tea dance
!!!PDT:	1922
!!!OTL: No_47_Tea_Dance_Song_(b).krn
!!!REG: Southwest
!!!LANG: Non-Tone
!!!LING_GROUP: Uto-Aztecan
**kern	**kern
*staff2	*staff1
=1-	=1-
*clefF4	*clefF4
*k[f#]	*k[f#]
*M2/4	*M2/4
12GG^/	8.g\L
12r	.
12GG/	.
.	16d\Jk
12GG^/	4d\
12r	.
12GG/	.
=2	=2
2r	8.g\L
.	16d\Jk
.	8d\L
.	8B\J
=3||	=3||
*M3/4	*M3/4
2.r	2.B\
=4||	=4||
*M2/4	*M2/4
2r	8g\L
.	8d\J
.	4d\
=5	=5
2r	8.g\L
.	16d\Jk
.	8d\L
.	8B\J
=6||	=6||
*M3/4	*M3/4
2.r	2.B\
=7||	=7||
*M2/4	*M2/4
2r	8d\L
.	8B\J
.	4B\
=8||	=8||
*M3/4	*M3/4
2.r	8d\L
.	8B\J
.	8.B\L
.	16G\Jk
.	4G\
=9	=9
=	=
*M2/4	*M2/4
2r	8.B\L
.	16A\Jk
.	4A\
=10||	=10||
*M3/4	*M3/4
2.r	8.B\L
.	16A\Jk
.	8B\L
.	8G\J
.	8G\L
.	8D\J
=11||	=11||
*M2/4	*M2/4
2r	8D/L
.	8BB/J
.	[4BB/
=12	=12
2r	2BB/]
=13	=13
2r	8.E\L
.	16D\Jk
.	4D\
=14	=14
2r	8.E\L
.	16D\Jk
.	8D/L
.	8BB/J
=15||	=15||
*M3/4	*M3/4
2.r	2.BB/
=16||	=16||
*M2/4	*M2/4
2r	8D/L
.	8BB/J
.	4BB/
=17	=17
2r	8D/L
.	8BB/J
.	8BB/L
.	8AA/J
=18	=18
2r	2BB/
=19	=19
2r	2BB/
==:|!	==:|!
*-	*-
